ui/StatusQ/src/assets/img/icons/close-filled.svg

<svg fill="none" height="24" viewBox="0 0 24 24" width="24" xmlns="http://www.w3.org/2000/svg"><rect fill="#939ba1" height="22" rx="11" width="22" x="1" y="1"/><path d="m15.7728 8.22709c-.3028-.30279-.7937-.30279-1.0965 0l-2.3108 2.31091c-.2019.2018-.5291.2018-.731 0l-2.31081-2.31091c-.30278-.30279-.79368-.30279-1.09646 0-.30278.30278-.30278.79369 0 1.09648l2.31087 2.31083c.2018.2019.2018.5292 0 .731l-2.31102 2.311c-.30277.3028-.30277.7937 0 1.0965.30278.3028.79368.3028 1.09646 0l2.31096-2.311c.2019-.2019.5291-.2019.731 0l2.311 2.311c.3027.3028.7936.3028 1.0964 0s.3028-.7937 0-1.0965l-2.311-2.311c-.2018-.2018-.2018-.5291 0-.731l2.3109-2.31083c.3027-.30279.3027-.7937 0-1.09648z" fill="#fff"/><rect height="22" rx="11" stroke="#eef2f5" stroke-width="2" width="22" x="1" y="1"/></svg>

<svg width="24" height="24" viewBox="0 0 24 24" fill="none" xmlns="http://www.w3.org/2000/svg">
<rect x="1" y="1" width="22" height="22" rx="11" fill="#939BA1"/>
<path d="M15.7728 8.22709C15.47 7.9243 14.9791 7.9243 14.6763 8.22709L12.3655 10.538C12.1636 10.7398 11.8364 10.7398 11.6345 10.538L9.32369 8.22709C9.02091 7.9243 8.53001 7.9243 8.22723 8.22709C7.92445 8.52987 7.92445 9.02078 8.22723 9.32357L10.5381 11.6344C10.7399 11.8363 10.7399 12.1636 10.5381 12.3654L8.22708 14.6764C7.92431 14.9792 7.92431 15.4701 8.22708 15.7729C8.52986 16.0757 9.02076 16.0757 9.32354 15.7729L11.6345 13.4619C11.8364 13.26 12.1636 13.26 12.3655 13.4619L14.6765 15.7729C14.9792 16.0757 15.4701 16.0757 15.7729 15.7729C16.0757 15.4701 16.0757 14.9792 15.7729 14.6764L13.4619 12.3654C13.2601 12.1636 13.2601 11.8363 13.4619 11.6344L15.7728 9.32357C16.0755 9.02078 16.0755 8.52987 15.7728 8.22709Z" fill="white"/>
<rect x="1" y="1" width="22" height="22" rx="11" stroke="#EEF2F5" stroke-width="2"/>
</svg>
